img/social-links/social-links_youtube.svg

<svg width="30" height="22" viewBox="0 0 30 22" fill="none" xmlns="http://www.w3.org/2000/svg">
<path d="M30 10.7846C30 10.711 30 10.6273 29.9967 10.5302C29.9933 10.259 29.9866 9.95427 29.9799 9.62949C29.9531 8.69534 29.9063 7.76454 29.8326 6.88731C29.7321 5.6786 29.5848 4.67079 29.3839 3.91409C29.1719 3.12441 28.7564 2.40421 28.1788 1.82547C27.6012 1.24672 26.8819 0.829705 26.0926 0.616102C25.1451 0.361637 23.2902 0.204271 20.6786 0.107173C19.4364 0.0602983 18.1071 0.0301642 16.7779 0.0134232C16.3125 0.00672674 15.8806 0.00337873 15.4922 3.05176e-05H14.5078C14.1194 0.00337873 13.6875 0.00672674 13.2221 0.0134232C11.8929 0.0301642 10.5636 0.0602983 9.32143 0.107173C6.70982 0.20762 4.85156 0.364986 3.90737 0.616102C3.11786 0.82918 2.39822 1.24602 1.82057 1.82485C1.24292 2.40367 0.827545 3.12416 0.616071 3.91409C0.41183 4.67079 0.267857 5.6786 0.167411 6.88731C0.09375 7.76454 0.046875 8.69534 0.0200892 9.62949C0.0100446 9.95427 0.00669638 10.259 0.00334816 10.5302C0.00334816 10.6273 0 10.711 0 10.7846V10.9721C0 11.0458 -5.11296e-08 11.1295 0.00334816 11.2266C0.00669638 11.4978 0.0133928 11.8025 0.0200892 12.1273C0.046875 13.0614 0.09375 13.9922 0.167411 14.8694C0.267857 16.0782 0.415179 17.086 0.616071 17.8427C1.04464 19.4465 2.30357 20.7121 3.90737 21.1407C4.85156 21.3951 6.70982 21.5525 9.32143 21.6496C10.5636 21.6965 11.8929 21.7266 13.2221 21.7433C13.6875 21.75 14.1194 21.7534 14.5078 21.7567H15.4922C15.8806 21.7534 16.3125 21.75 16.7779 21.7433C18.1071 21.7266 19.4364 21.6965 20.6786 21.6496C23.2902 21.5491 25.1484 21.3918 26.0926 21.1407C27.6964 20.7121 28.9554 19.4498 29.3839 17.8427C29.5882 17.086 29.7321 16.0782 29.8326 14.8694C29.9063 13.9922 29.9531 13.0614 29.9799 12.1273C29.99 11.8025 29.9933 11.4978 29.9967 11.2266C29.9967 11.1295 30 11.0458 30 10.9721V10.7846ZM27.5893 10.9587C27.5893 11.029 27.5893 11.1061 27.5859 11.1965C27.5826 11.4576 27.5759 11.7456 27.5692 12.0569C27.5458 12.9476 27.4989 13.8382 27.4286 14.6652C27.3382 15.7433 27.2109 16.6273 27.0536 17.2199C26.846 17.9933 26.2366 18.6061 25.4665 18.8103C24.7634 18.9978 22.9922 19.1485 20.5848 19.2389C19.3661 19.2857 18.0536 19.3159 16.7444 19.3326C16.2857 19.3393 15.8605 19.3427 15.4788 19.3427H14.5212L13.2556 19.3326C11.9464 19.3159 10.6373 19.2857 9.41518 19.2389C7.00781 19.1451 5.23326 18.9978 4.53348 18.8103C3.76339 18.6027 3.15402 17.9933 2.94643 17.2199C2.78906 16.6273 2.66183 15.7433 2.57143 14.6652C2.50112 13.8382 2.45759 12.9476 2.4308 12.0569C2.42076 11.7456 2.41741 11.4543 2.41406 11.1965C2.41406 11.1061 2.41071 11.0257 2.41071 10.9587V10.798C2.41071 10.7277 2.41071 10.6507 2.41406 10.5603C2.41741 10.2991 2.42411 10.0112 2.4308 9.69981C2.45424 8.80918 2.50112 7.91856 2.57143 7.09155C2.66183 6.01342 2.78906 5.12949 2.94643 4.53686C3.15402 3.76342 3.76339 3.1507 4.53348 2.94646C5.23661 2.75896 7.00781 2.60829 9.41518 2.51789C10.6339 2.47101 11.9464 2.44088 13.2556 2.42414C13.7143 2.41744 14.1395 2.41409 14.5212 2.41409H15.4788L16.7444 2.42414C18.0536 2.44088 19.3627 2.47101 20.5848 2.51789C22.9922 2.61164 24.7667 2.75896 25.4665 2.94646C26.2366 3.15405 26.846 3.76342 27.0536 4.53686C27.2109 5.12949 27.3382 6.01342 27.4286 7.09155C27.4989 7.91856 27.5424 8.80918 27.5692 9.69981C27.5792 10.0112 27.5826 10.3025 27.5859 10.5603C27.5859 10.6507 27.5893 10.7311 27.5893 10.798V10.9587ZM12.0201 15.365L19.7879 10.8449L12.0201 6.39177V15.365Z" fill="white"/>
</svg>

<svg width="30" height="22" fill="none" xmlns="http://www.w3.org/2000/svg"><path d="M30 10.785c0-.074 0-.158-.003-.255a50.389 50.389 0 00-.164-3.643c-.1-1.208-.248-2.216-.45-2.973a4.671 4.671 0 00-3.29-3.298C25.145.362 23.29.204 20.679.107a157.489 157.489 0 00-3.901-.094C16.313.007 15.88.003 15.492 0h-.984c-.389.003-.82.007-1.286.013-1.33.017-2.658.047-3.9.094-2.612.1-4.47.258-5.415.51a4.666 4.666 0 00-3.29 3.297c-.205.757-.35 1.765-.45 2.973C.094 7.765.047 8.695.02 9.63c-.01.325-.013.63-.017.901 0 .097-.003.181-.003.255v.187c0 .074 0 .158.003.255a50.411 50.411 0 00.164 3.643c.1 1.208.248 2.216.45 2.973a4.666 4.666 0 003.29 3.298c.945.254 2.803.412 5.414.509 1.243.047 2.572.077 3.901.093.466.007.897.01 1.286.014h.984c.389-.004.82-.007 1.286-.014a157.17 157.17 0 003.9-.093c2.612-.1 4.47-.258 5.415-.51a4.66 4.66 0 003.29-3.297c.205-.757.35-1.765.45-2.974.073-.877.12-1.808.147-2.742.01-.325.013-.63.017-.9 0-.098.003-.181.003-.255v-.187zm-2.41.174c0 .07 0 .147-.004.238-.003.26-.01.549-.017.86-.023.89-.07 1.781-.14 2.608-.09 1.078-.218 1.962-.375 2.555a2.253 2.253 0 01-1.587 1.59c-.704.188-2.475.338-4.882.429a152.262 152.262 0 01-5.106.104h-.958l-1.265-.01c-1.31-.017-2.619-.047-3.84-.094-2.408-.094-4.183-.241-4.883-.429a2.259 2.259 0 01-1.587-1.59c-.157-.593-.284-1.477-.375-2.555a48.501 48.501 0 01-.14-2.608c-.01-.311-.014-.603-.017-.86 0-.09-.003-.171-.003-.238v-.161c0-.07 0-.147.003-.238.003-.26.01-.549.017-.86.023-.89.07-1.781.14-2.608.09-1.079.218-1.963.375-2.555a2.253 2.253 0 011.587-1.59c.704-.188 2.475-.339 4.882-.43a152.073 152.073 0 015.106-.103h.958l1.265.01c1.31.017 2.619.047 3.84.094 2.408.094 4.183.241 4.883.428a2.26 2.26 0 011.587 1.59c.157.593.284 1.477.375 2.556a49.03 49.03 0 01.157 3.468c0 .09.003.171.003.238v.16zm-15.57 4.406l7.768-4.52-7.768-4.453v8.973z" fill="#fff"/></svg>
